z_dist/img/icons/crypto/eos-EOS.svg

<svg width="64" height="64" viewBox="0 0 64 64" fill="none" xmlns="http://www.w3.org/2000/svg">
<rect width="64" height="64" rx="4" fill="black"/>
<path fill-rule="evenodd" clip-rule="evenodd" d="M21.7829 24.4054L31.7669 10.6667L41.6656 24.3201L45.9322 44.7147L31.7669 53.3334L17.6016 44.7147L21.7829 24.4054ZM23.0636 28.3307L19.9062 43.7761L30.2316 50.0907L23.0636 28.3307ZM24.0859 24.832L31.7659 14.2507L39.4459 24.832L31.7659 48.0426L24.0859 24.832ZM40.3867 28.3307L33.2188 50.0907L43.5441 43.7761L40.3867 28.3307Z" fill="white"/>
</svg>

<svg width="64" height="64" fill="none" xmlns="http://www.w3.org/2000/svg"><rect width="64" height="64" rx="4" fill="#000"/><path fill-rule="evenodd" clip-rule="evenodd" d="M21.783 24.405l9.984-13.738 9.899 13.653 4.266 20.395-14.165 8.618-14.165-8.618 4.18-20.31zm1.28 3.926l-3.157 15.445 10.326 6.315-7.168-21.76zm1.023-3.499l7.68-10.581 7.68 10.581-7.68 23.21-7.68-23.21zm16.3 3.499L33.22 50.09l10.325-6.315-3.157-15.445z" fill="#fff"/></svg>
